src/icons/faucet.svg

<svg viewBox="0 0 25 24" fill="none" xmlns="http://www.w3.org/2000/svg">
<path fill-rule="evenodd" clip-rule="evenodd" d="M7.33209 4.50633L11.0376 4.90916C11.2965 4.41113 11.8172 4.07007 12.4161 4.07007C13.0206 4.07007 13.5429 4.41086 13.8021 4.90849L17.5084 4.50633C18.2633 4.42241 18.8001 4.90057 18.8001 5.62204C18.8001 6.35197 18.2633 6.83845 17.5084 6.75467L13.8002 6.34499C13.6571 6.61958 13.4344 6.84584 13.1627 6.99368V8.00465H13.6662C14.3287 8.00465 14.7399 8.41567 14.7399 9.07846V10.0348H14.9665C15.3355 10.0348 15.4781 10.1438 15.6291 10.5633L16.1409 11.9476C16.1836 12.0645 16.2631 12.1613 16.3756 12.2165C16.4406 12.2483 16.5164 12.2663 16.6023 12.2663H16.963C19.6813 12.2663 22.5 13.8687 22.5 18.6422V19.4223C22.5 19.7747 22.3322 19.9341 21.9798 19.9341H18.9094C18.5571 19.9341 18.3976 19.7747 18.3976 19.4223V18.2563C18.3976 17.1489 17.7348 16.5365 16.9044 16.5365C16.468 16.5365 15.9731 16.7294 15.5955 17.1069C14.6561 17.9711 13.8088 18.5415 12.4078 18.5415C10.9984 18.5415 9.89919 17.8788 9.07715 16.9812C8.70816 16.5533 8.44793 16.4861 7.92774 16.4861H3.85056V17.9207C3.85056 18.2899 3.5487 18.6002 3.17112 18.6002C2.80212 18.6002 2.5 18.2899 2.5 17.9207V11.0667C2.5 10.6976 2.80212 10.3871 3.17112 10.3871C3.5487 10.3871 3.85056 10.6976 3.85056 11.0667V12.2663H8.21294C8.4396 12.2663 8.59885 12.1321 8.67459 11.9476L9.17786 10.5633C9.33711 10.1438 9.47139 10.0348 9.84065 10.0348H10.0754V9.07846C10.0754 8.41567 10.4865 8.00465 11.141 8.00465H11.6778V6.99516C11.406 6.84718 11.1831 6.62012 11.0397 6.34432L7.33209 6.75467C6.56886 6.83845 6.03175 6.35197 6.03175 5.62204C6.03175 4.90057 6.56886 4.42241 7.33209 4.50633Z" fill="currentColor"/>
</svg>

<svg viewBox="0 0 25 24" fill="none" xmlns="http://www.w3.org/2000/svg"><path fill-rule="evenodd" clip-rule="evenodd" d="m7.332 4.506 3.706.403a1.56 1.56 0 0 1 2.764 0l3.706-.403c.755-.084 1.292.395 1.292 1.116 0 .73-.537 1.216-1.292 1.133l-3.708-.41a1.56 1.56 0 0 1-.637.649v1.01h.503c.663 0 1.074.412 1.074 1.074v.957h.226c.37 0 .512.109.663.528l.512 1.385a.473.473 0 0 0 .461.318h.361c2.718 0 5.537 1.603 5.537 6.376v.78c0 .353-.168.512-.52.512h-3.07c-.353 0-.512-.16-.512-.512v-1.166c0-1.107-.663-1.72-1.494-1.72-.436 0-.93.193-1.309.57-.939.865-1.786 1.435-3.187 1.435-1.41 0-2.509-.662-3.33-1.56-.37-.428-.63-.495-1.15-.495H3.85v1.435c0 .369-.302.68-.68.68a.68.68 0 0 1-.671-.68v-6.854c0-.37.302-.68.671-.68.378 0 .68.31.68.68v1.2h4.362a.486.486 0 0 0 .462-.32l.503-1.384c.16-.42.293-.528.663-.528h.234v-.957c0-.662.412-1.073 1.066-1.073h.537v-1.01a1.562 1.562 0 0 1-.638-.65l-3.708.41c-.763.083-1.3-.403-1.3-1.133 0-.721.537-1.2 1.3-1.116z" fill="currentColor"/></svg>
